%
(Header)
(Generated by gcodetools from Inkscape.)
(Using default header. To add your own header create file "header" in the output dir.)
M3
(Header end.)
G21 (All units in mm)

(Start cutting path id: line110)
(Change tool to Graffiti)
(Add G00 here to change sprayer if needed)
G00 Z 5.0000
G00 X -90.8410 Y 339.5113
M03 S1(Turn spray on)
G01 Z -0.1250 F 100.0000(Penetrate)
G01 X -45.4315 Y 339.5113 Z -0.1250 F 400.0000
G00 Z 5.0000
M05 (Turn spray off)
(End cutting path id: line110)


(Start cutting path id: line110)
(Change tool to Graffiti)
(Add G00 here to change sprayer if needed)
G00 Z 5.0000
G00 X -49.9188 Y 379.1757
M03 S1(Turn spray on)
G01 Z -0.1250 F 100.0000(Penetrate)
G03 X -48.0792 Y 365.0625 Z -0.1250 I 73.5927 J 2.4161 F 400.0000
G02 X -45.4315 Y 339.5113 Z -0.1250 I -101.8828 J -23.4702
G00 Z 5.0000
M05 (Turn spray off)
(End cutting path id: line110)


(Start cutting path id: line110)
(Change tool to Graffiti)
(Add G00 here to change sprayer if needed)
G00 Z 5.0000
G00 X -45.6855 Y 407.9624
M03 S1(Turn spray on)
G01 Z -0.1250 F 100.0000(Penetrate)
G03 X -48.5200 Y 393.6746 Z -0.1250 I 141.8167 J -35.5600 F 400.0000
G03 X -49.9188 Y 379.1757 Z -0.1250 I 144.6512 J -21.2722
G00 Z 5.0000
M05 (Turn spray off)
(End cutting path id: line110)


(Start cutting path id: line110)
(Change tool to Graffiti)
(Add G00 here to change sprayer if needed)
G00 Z 5.0000
G00 X -45.6855 Y 407.9624
M03 S1(Turn spray on)
G01 Z -0.1250 F 100.0000(Penetrate)
G02 X -50.8212 Y 410.0882 Z -0.1250 I 1.5767 J 11.0757 F 400.0000
G02 X -54.1522 Y 414.3124 Z -0.1250 I 6.2877 J 8.3837
G00 Z 5.0000
M05 (Turn spray off)
(End cutting path id: line110)


(Start cutting path id: line110)
(Change tool to Graffiti)
(Add G00 here to change sprayer if needed)
G00 Z 5.0000
G00 X -52.0663 Y 448.4477
M03 S1(Turn spray on)
G01 Z -0.1250 F 100.0000(Penetrate)
G03 X -56.4707 Y 427.7547 Z -0.1250 I 66.8701 J -25.0483 F 400.0000
G03 X -54.1522 Y 414.3124 Z -0.1250 I 29.6299 J -1.8106
G00 Z 5.0000
M05 (Turn spray off)
(End cutting path id: line110)


(Start cutting path id: line110)
(Change tool to Graffiti)
(Add G00 here to change sprayer if needed)
G00 Z 5.0000
G00 X -79.6049 Y 444.7712
M03 S1(Turn spray on)
G01 Z -0.1250 F 100.0000(Penetrate)
G02 X -86.3946 Y 439.7264 Z -0.1250 I -23.3008 J 24.2687 F 400.0000
G02 X -90.8410 Y 438.4424 Z -0.1250 I -4.9428 J 8.7753
G00 Z 5.0000
M05 (Turn spray off)
(End cutting path id: line110)


(Start cutting path id: line110)
(Change tool to Graffiti)
(Add G00 here to change sprayer if needed)
G00 Z 5.0000
G00 X -90.8410 Y 438.4424
M03 S1(Turn spray on)
G01 Z -0.1250 F 100.0000(Penetrate)
G01 X -90.8410 Y 339.5113 Z -0.1250 F 400.0000
G00 Z 5.0000
M05 (Turn spray off)
(End cutting path id: line110)


(Start cutting path id: line110)
(Change tool to Graffiti)
(Add G00 here to change sprayer if needed)
G00 Z 5.0000
G00 X -72.4966 Y 461.0201
M03 S1(Turn spray on)
G01 Z -0.1250 F 100.0000(Penetrate)
G02 X -75.6997 Y 450.8708 Z -0.1250 I -48.9915 J 9.8815 F 400.0000
G02 X -79.6049 Y 444.7712 Z -0.1250 I -21.2053 J 9.2766
G00 Z 5.0000
M05 (Turn spray off)
(End cutting path id: line110)


(Start cutting path id: line110)
(Change tool to Graffiti)
(Add G00 here to change sprayer if needed)
G00 Z 5.0000
G00 X -72.4966 Y 461.0201
M03 S1(Turn spray on)
G01 Z -0.1250 F 100.0000(Penetrate)
G01 X -52.0663 Y 448.4477 Z -0.1250 F 400.0000
G00 Z 5.0000
M05 (Turn spray off)
(End cutting path id: line110)



(Footer)
M5
G00 X0.0000 Y0.0000
M2
(Using default footer. To add your own footer create file "footer" in the output dir.)
(end)
%