%
(Header)
(Generated by gcodetools from Inkscape.)
(Using default header. To add your own header create file "header" in the output dir.)
M3
(Header end.)
G21 (All units in mm)

(Start cutting path id: path4182)
(Change tool to Graffiti)
(Add G00 here to change sprayer if needed)
G00 Z0.000000
G00 X118.168768 Y269.835317
M03 S1(Turn spray on)
G01 Z-0.125000 F100.0(Penetrate)
G03 X114.258586 Y275.244989 Z-0.125000 I-7.023367 J-0.958580 F400.000000
G03 X105.997860 Y277.028809 Z-0.125000 I-7.743376 J-15.839655
G03 X98.360517 Y274.713915 Z-0.125000 I0.447124 J-15.231241
G03 X94.853927 Y268.358188 Z-0.125000 I3.963077 J-6.331708
G03 X98.432327 Y263.007521 Z-0.125000 I5.817504 J0.018701
G03 X106.836541 Y261.425236 Z-0.125000 I7.932329 J19.021713
G02 X114.531661 Y260.661481 Z-0.125000 I0.728484 J-31.807771
G02 X117.654132 Y259.225487 Z-0.125000 I-1.802539 J-8.032290
G02 X119.642006 Y256.534569 Z-0.125000 I-3.462658 J-4.637700
G02 X120.171276 Y253.240898 Z-0.125000 I-8.598130 J-3.071020
G02 X117.561933 Y248.350832 Z-0.125000 I-6.168822 J0.150481
G02 X110.312866 Y245.496687 Z-0.125000 I-9.461917 J13.398939
G02 X102.441232 Y246.136557 Z-0.125000 I-2.480715 J18.220504
G02 X95.931943 Y251.019541 Z-0.125000 I3.516472 J11.467767
G00 Z0.000000
M05 (Turn spray off)
(End cutting path id: path4182)


(Start cutting path id: path4162)
(Change tool to Graffiti)
(Add G00 here to change sprayer if needed)
G00 Z0.000000
G00 X63.701589 Y244.323811
M03 S1(Turn spray on)
G01 Z-0.125000 F100.0(Penetrate)
G01 X85.473016 Y244.323811 Z-0.125000 F400.000000
G00 Z0.000000
M05 (Turn spray off)
(End cutting path id: path4162)


(Start cutting path id: path4166)
(Change tool to Graffiti)
(Add G00 here to change sprayer if needed)
G00 Z0.000000
G00 X64.507937 Y262.063493
M03 S1(Turn spray on)
G01 Z-0.125000 F100.0(Penetrate)
G01 X80.634922 Y262.063493 Z-0.125000 F400.000000
G00 Z0.000000
M05 (Turn spray off)
(End cutting path id: path4166)


(Start cutting path id: path4164)
(Change tool to Graffiti)
(Add G00 here to change sprayer if needed)
G00 Z0.000000
G00 X63.701589 Y277.384129
M03 S1(Turn spray on)
G01 Z-0.125000 F100.0(Penetrate)
G01 X87.085715 Y277.384129 Z-0.125000 F400.000000
G00 Z0.000000
M05 (Turn spray off)
(End cutting path id: path4164)


(Start cutting path id: path4156)
(Change tool to Graffiti)
(Add G00 here to change sprayer if needed)
G00 Z0.000000
G00 X63.701589 Y277.384129
M03 S1(Turn spray on)
G01 Z-0.125000 F100.0(Penetrate)
G01 X63.701589 Y244.323811 Z-0.125000 F400.000000
G00 Z0.000000
M05 (Turn spray off)
(End cutting path id: path4156)


(Start cutting path id: path4154)
(Change tool to Graffiti)
(Add G00 here to change sprayer if needed)
G00 Z0.000000
G00 X35.479366 Y276.577779
M03 S1(Turn spray on)
G01 Z-0.125000 F100.0(Penetrate)
G01 X35.479366 Y243.517462 Z-0.125000 F400.000000
G00 Z0.000000
M05 (Turn spray off)
(End cutting path id: path4154)


(Start cutting path id: path4152)
(Change tool to Graffiti)
(Add G00 here to change sprayer if needed)
G00 Z0.000000
G00 X14.514286 Y276.577779
M03 S1(Turn spray on)
G01 Z-0.125000 F100.0(Penetrate)
G01 X56.444445 Y276.577779 Z-0.125000 F400.000000
G00 Z0.000000
M05 (Turn spray off)
(End cutting path id: path4152)


(Start cutting path id: path4176)
(Change tool to Graffiti)
(Add G00 here to change sprayer if needed)
G00 Z0.000000
G00 X125.790478 Y276.980954
M03 S1(Turn spray on)
G01 Z-0.125000 F100.0(Penetrate)
G01 X157.238097 Y276.980954 Z-0.125000 F400.000000
G00 Z0.000000
M05 (Turn spray off)
(End cutting path id: path4176)


(Start cutting path id: path4178)
(Change tool to Graffiti)
(Add G00 here to change sprayer if needed)
G00 Z0.000000
G00 X141.111112 Y275.368256
M03 S1(Turn spray on)
G01 Z-0.125000 F100.0(Penetrate)
G01 X141.111112 Y241.501588 Z-0.125000 F400.000000
G00 Z0.000000
M05 (Turn spray off)
(End cutting path id: path4178)


(Footer)
M5
G00 X0.0000 Y0.0000
M2
(Using default footer. To add your own footer create file "footer" in the output dir.)
(end)
%