%
(Header)
(Generated by gcodetools from Inkscape.)
(Using default header. To add your own header create file "header" in the output dir.)
(Header end.)
G21 (All units in mm)

(Start cutting path id: path450)
(Change tool to Graffiti)
(Add G00 here to change sprayer if needed)
G00 Z 5.0000
G00 X 54.8498 Y 816.6216
M03 S1(Turn spray on)
G01 Z -0.1250 F 100.0000(Penetrate)
G02 X 44.4933 Y 824.6719 Z -0.1250 I 10.8760 J 24.6784 F 400.0000
G03 X 29.7117 Y 838.8850 Z -0.1250 I -57.5933 J -45.1041
G00 Z 5.0000
M05 (Turn spray off)
(End cutting path id: path450)


(Start cutting path id: path448)
(Change tool to Graffiti)
(Add G00 here to change sprayer if needed)
G00 Z 5.0000
G00 X 13.5655 Y 844.7704
M03 S1(Turn spray on)
G01 Z -0.1250 F 100.0000(Penetrate)
G02 X 22.0979 Y 843.0880 Z -0.1250 I -1.1227 J -28.1704 F 400.0000
G02 X 29.7117 Y 838.8850 Z -0.1250 I -9.6554 J -26.4886
G00 Z 5.0000
M05 (Turn spray off)
(End cutting path id: path448)


(Start cutting path id: path446)
(Change tool to Graffiti)
(Add G00 here to change sprayer if needed)
G00 Z 5.0000
G00 X 13.5655 Y 844.7704
M03 S1(Turn spray on)
G01 Z -0.1250 F 100.0000(Penetrate)
G03 X 2.3250 Y 841.8684 Z -0.1250 I -0.3124 J -22.0098 F 400.0000
G03 X -8.1894 Y 832.3284 Z -0.1250 I 16.3440 J -28.5774
G00 Z 5.0000
M05 (Turn spray off)
(End cutting path id: path446)


(Start cutting path id: path444)
(Change tool to Graffiti)
(Add G00 here to change sprayer if needed)
G00 Z 5.0000
G00 X -27.7189 Y 816.6216
M03 S1(Turn spray on)
G01 Z -0.1250 F 100.0000(Penetrate)
G03 X -14.0347 Y 825.2628 Z -0.1250 I -6.1396 J 24.8785 F 400.0000
G02 X -8.1894 Y 832.3284 Z -0.1250 I 725.2003 J -593.9979
G00 Z 5.0000
M05 (Turn spray off)
(End cutting path id: path444)


(Start cutting path id: path440)
(Change tool to Graffiti)
(Add G00 here to change sprayer if needed)
G00 Z 5.0000
G00 X -27.7189 Y 816.6216
M03 S1(Turn spray on)
G01 Z -0.1250 F 100.0000(Penetrate)
G02 X -17.6961 Y 770.4509 Z -0.1250 I -381.1264 J -106.9086 F 400.0000
G02 X -13.2457 Y 723.4149 Z -0.1250 I -391.1495 J -60.7380
G00 Z 5.0000
M05 (Turn spray off)
(End cutting path id: path440)


(Start cutting path id: path436)
(Change tool to Graffiti)
(Add G00 here to change sprayer if needed)
G00 Z 5.0000
G00 X -13.2457 Y 723.4149
M03 S1(Turn spray on)
G01 Z -0.1250 F 100.0000(Penetrate)
G02 X 0.1599 Y 724.4806 Z -0.1250 I 13.4056 J -83.7847 F 400.0000
G02 X 13.5655 Y 723.4149 Z -0.1250 I -0.0000 J -84.8504
G00 Z 5.0000
M05 (Turn spray off)
(End cutting path id: path436)


(Start cutting path id: path438)
(Change tool to Graffiti)
(Add G00 here to change sprayer if needed)
G00 Z 5.0000
G00 X 40.3766 Y 723.4149
M03 S1(Turn spray on)
G01 Z -0.1250 F 100.0000(Penetrate)
G02 X 26.9710 Y 722.3492 Z -0.1250 I -13.4056 J 83.7847 F 400.0000
G02 X 13.5655 Y 723.4149 Z -0.1250 I 0.0000 J 84.8504
G00 Z 5.0000
M05 (Turn spray off)
(End cutting path id: path438)


(Start cutting path id: path442)
(Change tool to Graffiti)
(Add G00 here to change sprayer if needed)
G00 Z 5.0000
G00 X 54.8498 Y 816.6216
M03 S1(Turn spray on)
G01 Z -0.1250 F 100.0000(Penetrate)
G03 X 44.8270 Y 770.4509 Z -0.1250 I 381.1264 J -106.9086 F 400.0000
G03 X 40.3766 Y 723.4149 Z -0.1250 I 391.1495 J -60.7380
G00 Z 5.0000
M05 (Turn spray off)
(End cutting path id: path442)


(Start cutting path id: line90)
(Change tool to Graffiti)
(Add G00 here to change sprayer if needed)
G00 Z 5.0000
G00 X -42.1076 Y 862.2013
M03 S1(Turn spray on)
G01 Z -0.1250 F 100.0000(Penetrate)
G01 X 9.7189 Y 859.6731 Z -0.1250 F 400.0000
G00 Z 5.0000
M05 (Turn spray off)
(End cutting path id: line90)


(Start cutting path id: path86)
(Change tool to Graffiti)
(Add G00 here to change sprayer if needed)
G00 Z 5.0000
G00 X -37.6174 Y 901.8656
M03 S1(Turn spray on)
G01 Z -0.1250 F 100.0000(Penetrate)
G02 X -39.4582 Y 887.7525 Z -0.1250 I -73.5980 J 2.4225 F 400.0000
G03 X -42.1076 Y 862.2013 Z -0.1250 I 101.8792 J -23.4769
G00 Z 5.0000
M05 (Turn spray off)
(End cutting path id: path86)


(Start cutting path id: path108)
(Change tool to Graffiti)
(Add G00 here to change sprayer if needed)
G00 Z 5.0000
G00 X -65.8397 Y 901.8656
M03 S1(Turn spray on)
G01 Z -0.1250 F 100.0000(Penetrate)
G03 X -64.0000 Y 887.7524 Z -0.1250 I 73.5927 J 2.4161 F 400.0000
G02 X -61.3523 Y 862.2013 Z -0.1250 I -101.8828 J -23.4702
G00 Z 5.0000
M05 (Turn spray off)
(End cutting path id: path108)


(Start cutting path id: line110)
(Change tool to Graffiti)
(Add G00 here to change sprayer if needed)
G00 Z 5.0000
G00 X -106.7619 Y 862.2013
M03 S1(Turn spray on)
G01 Z -0.1250 F 100.0000(Penetrate)
G01 X -61.3523 Y 862.2013 Z -0.1250 F 400.0000
G00 Z 5.0000
M05 (Turn spray off)
(End cutting path id: line110)


(Start cutting path id: path106)
(Change tool to Graffiti)
(Add G00 here to change sprayer if needed)
G00 Z 5.0000
G00 X -61.6063 Y 930.6523
M03 S1(Turn spray on)
G01 Z -0.1250 F 100.0000(Penetrate)
G03 X -64.4409 Y 916.3645 Z -0.1250 I 141.8167 J -35.5600 F 400.0000
G03 X -65.8397 Y 901.8656 Z -0.1250 I 144.6512 J -21.2722
G00 Z 5.0000
M05 (Turn spray off)
(End cutting path id: path106)


(Start cutting path id: path104)
(Change tool to Graffiti)
(Add G00 here to change sprayer if needed)
G00 Z 5.0000
G00 X -61.6063 Y 930.6523
M03 S1(Turn spray on)
G01 Z -0.1250 F 100.0000(Penetrate)
G02 X -66.7420 Y 932.7781 Z -0.1250 I 1.5767 J 11.0757 F 400.0000
G02 X -70.0730 Y 937.0023 Z -0.1250 I 6.2878 J 8.3837
G00 Z 5.0000
M05 (Turn spray off)
(End cutting path id: path104)


(Start cutting path id: path84)
(Change tool to Graffiti)
(Add G00 here to change sprayer if needed)
G00 Z 5.0000
G00 X -41.8508 Y 930.6523
M03 S1(Turn spray on)
G01 Z -0.1250 F 100.0000(Penetrate)
G02 X -39.0162 Y 916.3645 Z -0.1250 I -141.8167 J -35.5600 F 400.0000
G02 X -37.6174 Y 901.8656 Z -0.1250 I -144.6512 J -21.2722
G00 Z 5.0000
M05 (Turn spray off)
(End cutting path id: path84)


(Start cutting path id: path82)
(Change tool to Graffiti)
(Add G00 here to change sprayer if needed)
G00 Z 5.0000
G00 X -41.8508 Y 930.6523
M03 S1(Turn spray on)
G01 Z -0.1250 F 100.0000(Penetrate)
G03 X -30.7461 Y 934.6794 Z -0.1250 I -1.5861 J 21.6978 F 400.0000
G03 X -26.3285 Y 941.8001 Z -0.1250 I -6.3867 J 8.8928
G00 Z 5.0000
M05 (Turn spray off)
(End cutting path id: path82)


(Start cutting path id: path80)
(Change tool to Graffiti)
(Add G00 here to change sprayer if needed)
G00 Z 5.0000
G00 X -27.0440 Y 974.5635
M03 S1(Turn spray on)
G01 Z -0.1250 F 100.0000(Penetrate)
G02 X -24.9946 Y 955.0070 Z -0.1250 I -117.1146 J -22.1587 F 400.0000
G02 X -26.3285 Y 941.8001 Z -0.1250 I -54.3036 J -1.1858
G00 Z 5.0000
M05 (Turn spray off)
(End cutting path id: path80)


(Start cutting path id: line76)
(Change tool to Graffiti)
(Add G00 here to change sprayer if needed)
G00 Z 5.0000
G00 X -2.8505 Y 982.2990
M03 S1(Turn spray on)
G01 Z -0.1250 F 100.0000(Penetrate)
G01 X -27.0440 Y 974.5635 Z -0.1250 F 400.0000
G00 Z 5.0000
M05 (Turn spray off)
(End cutting path id: line76)


(Start cutting path id: path102)
(Change tool to Graffiti)
(Add G00 here to change sprayer if needed)
G00 Z 5.0000
G00 X -67.9871 Y 971.1376
M03 S1(Turn spray on)
G01 Z -0.1250 F 100.0000(Penetrate)
G03 X -72.3915 Y 950.4447 Z -0.1250 I 66.8701 J -25.0483 F 400.0000
G03 X -70.0730 Y 937.0023 Z -0.1250 I 29.6299 J -1.8106
G00 Z 5.0000
M05 (Turn spray off)
(End cutting path id: path102)


(Start cutting path id: path100)
(Change tool to Graffiti)
(Add G00 here to change sprayer if needed)
G00 Z 5.0000
G00 X -95.5258 Y 967.4611
M03 S1(Turn spray on)
G01 Z -0.1250 F 100.0000(Penetrate)
G02 X -102.3155 Y 962.4163 Z -0.1250 I -23.3008 J 24.2687 F 400.0000
G02 X -106.7619 Y 961.1323 Z -0.1250 I -4.9428 J 8.7753
G00 Z 5.0000
M05 (Turn spray off)
(End cutting path id: path100)


(Start cutting path id: line94)
(Change tool to Graffiti)
(Add G00 here to change sprayer if needed)
G00 Z 5.0000
G00 X -106.7619 Y 961.1323
M03 S1(Turn spray on)
G01 Z -0.1250 F 100.0000(Penetrate)
G01 X -106.7619 Y 862.2013 Z -0.1250 F 400.0000
G00 Z 5.0000
M05 (Turn spray off)
(End cutting path id: line94)


(Start cutting path id: path98)
(Change tool to Graffiti)
(Add G00 here to change sprayer if needed)
G00 Z 5.0000
G00 X -88.4174 Y 983.7101
M03 S1(Turn spray on)
G01 Z -0.1250 F 100.0000(Penetrate)
G02 X -91.6205 Y 973.5607 Z -0.1250 I -48.9915 J 9.8815 F 400.0000
G02 X -95.5258 Y 967.4611 Z -0.1250 I -21.2053 J 9.2766
G00 Z 5.0000
M05 (Turn spray off)
(End cutting path id: path98)


(Start cutting path id: line96)
(Change tool to Graffiti)
(Add G00 here to change sprayer if needed)
G00 Z 5.0000
G00 X -88.4174 Y 983.7101
M03 S1(Turn spray on)
G01 Z -0.1250 F 100.0000(Penetrate)
G01 X -67.9871 Y 971.1376 Z -0.1250 F 400.0000
G00 Z 5.0000
M05 (Turn spray off)
(End cutting path id: line96)


(Start cutting path id: line88)
(Change tool to Graffiti)
(Add G00 here to change sprayer if needed)
G00 Z 5.0000
G00 X 15.4940 Y 978.0656
M03 S1(Turn spray on)
G01 Z -0.1250 F 100.0000(Penetrate)
G01 X 9.7189 Y 859.6731 Z -0.1250 F 400.0000
G00 Z 5.0000
M05 (Turn spray off)
(End cutting path id: line88)


(Start cutting path id: path78)
(Change tool to Graffiti)
(Add G00 here to change sprayer if needed)
G00 Z 5.0000
G00 X 15.4940 Y 978.0656
M03 S1(Turn spray on)
G01 Z -0.1250 F 100.0000(Penetrate)
G02 X 1.0802 Y 979.1538 Z -0.1250 I -3.6415 J 47.7680 F 400.0000
G02 X -2.8505 Y 982.2990 Z -0.1250 I 1.3065 J 5.6617
G00 Z 5.0000
M05 (Turn spray off)
(End cutting path id: path78)



(Footer)
M5
G00 X0.0000 Y0.0000
M2
(Using default footer. To add your own footer create file "footer" in the output dir.)
(end)
%